X: 2
T: The Hag With The Money
R: jig
M: 6/8
L: 1/8
K: Dmix
|: Adc ABA | AGE GFG | Aed cAB | AGE EFG |
Adc ABA | AGE GFG | Aed cAG | EDD D3 :|
|: ABc d2A | Bcd e2d | cAA fed | cAG EFG |
ABc d2A | Bcd e2f | gef efg | aef edc :|


Tune 351	Setting 25813

